X: 2245
T: The KINNEGAD SLASHERS
Q: "Irish Jig."
R: Jig.
%R: jig
B: James Kerr "Merry Melodies" v.2 p.27 #245
Z: 2016 John Chambers <jc:trillian.mit.edu>
N: Added triplet symbol to initial pickup.
M: 6/8
L: 1/8
K: D
(v(3A/B/c/ |\
d)>ed dAF | ABA ABc | d>ed dAF | Eee e2uf |\
ded dAF | ABA Aag | fef dBA | Bdd d2 :|
|: uA |\
d>fa afd | c>de ecA | d>fa afd | faa a2A |\
dfa afd | c>de eag | f>ef dBA | Bdd d2 :|
|: A |\
d>AF d>AF | A>BA ABc | d>AF d>AF | E<dd (e2f) |\
d>AF d>AF | A>BA Aag | f>ef dBA | B<dd d2 :|

%%sep 1 1 500
%%sep 1 1 500

